chains/aleotestnet/logo.svg

<svg width="76" height="80" viewBox="0 0 76 80" fill="none" xmlns="http://www.w3.org/2000/svg">
<path d="M47.886 0H29.4601L13.4679 46.7704H23.2068L36.1609 8.61481H40.8513L53.8036 46.7704H23.2068L20.193 55.3852H56.7073L65.0811 80H75.1314L47.886 0Z" fill="#121212"/>
<path d="M2.10278 80H11.8174L20.193 55.3852L10.5213 55.3852L2.10278 80Z" fill="#121212"/>
<path d="M3.81482 46.7704L0.868164 55.3852H10.5213L13.4679 46.7704H3.81482Z" fill="#121212"/>
</svg>

<svg xmlns="http://www.w3.org/2000/svg" width="76" height="80" fill="none" viewBox="0 0 76 80"><path fill="#121212" d="M47.886 0H29.46L13.468 46.77h9.739L36.16 8.615h4.69L53.804 46.77H23.207l-3.014 8.615h36.514L65.081 80h10.05zM2.103 80h9.714l8.376-24.615h-9.672zm1.712-33.23L.868 55.385h9.653l2.947-8.615z"/></svg>
